dist/img/logos/kandinsky.svg

<svg class="active" viewBox="0 0 287.02933 89.574135" xmlns="http://www.w3.org/2000/svg" xmlns:xlink="http://www.w3.org/1999/xlink"><clipPath id="aaas"><path d="m0 67.181h215.272v-67.181h-215.272z"/></clipPath><g clip-path="url(#aaas)" transform="matrix(1.3333333 0 0 -1.3333333 0 89.574133)"><path d="m0 0-1.379.911c7.906 11.975 6.269 28.043-3.893 38.205-11.849 11.846-31.125 11.846-42.974 0l-1.167 1.167c12.491 12.494 32.817 12.491 45.308 0 10.715-10.714 12.443-27.655 4.105-40.283" fill="#af7d58" transform="translate(126.1698 15.4472)"/><path d="m0 0-1.167 1.167 7.735 7.738 1.168-1.167z" fill="#af7d58" transform="translate(23.9613 50.9448)"/><path d="m0 0-1.169 1.167 7.734 7.738 1.17-1.167z" fill="#af7d58" transform="translate(31.7001 50.9448)"/><path d="m0 0-1.167 1.167 7.737 7.738 1.167-1.167z" fill="#af7d58" transform="translate(39.4339 50.9448)"/><path d="m0 0-1.151 1.187 17.421 16.883 1.152-1.186z" fill="#af7d58" transform="translate(114.3631 49.1108)"/><g fill="#244c5a"><path d="m0 0-8.189 11.262-3.38-3.504v-7.758h-5.045v25.337h5.045v-11.877l11.025 11.877h5.989l-10.244-10.665 10.851-14.672z" transform="translate(16.6141 18.8242)"/><path d="m0 0-13.1 17.199v-17.199h-4.973v25.337h4.788l12.679-16.665v16.665h4.973v-25.337z" transform="translate(71.3363 18.8242)"/><path d="m107.298 18.825h5.045v25.336h-5.045z"/><path d="m0 0-13.101 17.199v-17.199h-4.971v25.337h4.777l12.689-16.665v16.665h4.983v-25.337z" transform="translate(136.1073 18.8242)"/><path d="m0 0c-3.914 0-7.654 1.366-10.571 3.863l2.968 3.555c2.57-2.075 5.036-3.03 7.706-3.03 2.528 0 4.1 1.068 4.1 2.774v.071c0 1.747-1.182 2.538-5.487 3.637-5.681 1.46-8.373 2.97-8.373 7.634v.073c0 2.198.843 4.069 2.446 5.435 1.562 1.336 3.81 2.087 6.307 2.087 3.494 0 6.606-1.029 9.226-3.063l-2.62-3.781c-2.425 1.644-4.613 2.445-6.678 2.445-2.702 0-3.668-1.397-3.668-2.589v-.082c0-2.055 1.614-2.662 5.867-3.75 4.931-1.285 8.004-2.98 8.004-7.47v-.081c0-4.769-3.555-7.728-9.227-7.728" transform="translate(154.9598 18.4541)"/><path d="m0 0-8.188 11.262-3.392-3.504v-7.758h-5.055v25.337h5.055v-11.877l11.036 11.877h5.99l-10.245-10.665 10.851-14.672z" transform="translate(184.6024 18.8242)"/><path d="m0 0v10.028l-9.721 15.309h5.899l6.381-10.747 6.524 10.747h5.701l-9.74-15.206v-10.131z" transform="translate(200.4872 18.8242)"/><path d="m0 0-2.363 5.836h-11.446l-2.384-5.836h-5.096l4.326 10.183h12.813v.04h.02l-3.956 9.649-.031-.032-2.322 5.682v.01h4.85l10.86-25.532z" transform="translate(45.3519 18.8242)"/><path d="m0 0v4.5h3.596c2.384 0 4.428.782 5.908 2.24 1.489 1.48 2.26 3.493 2.26 5.857v.082c0 4.798-3.349 8.158-8.168 8.158h-3.596-.329-5.887v4.5h9.812c7.809 0 13.48-5.291 13.48-12.585v-.073c0-3.493-1.315-6.699-3.729-9.021-2.467-2.363-5.929-3.658-9.751-3.658z" transform="translate(85.9164 18.8242)"/><path d="m0 0v.025c0 1.913-1.395 3.478-3.321 3.478-1.925 0-3.297-1.541-3.297-3.454v-.024c0-1.914 1.396-3.478 3.321-3.478s3.297 1.541 3.297 3.453m-7.604 0v.025c0 2.323 1.745 4.356 4.307 4.356 2.565 0 4.286-2.01 4.286-4.332v-.024c0-2.323-1.745-4.356-4.31-4.356-2.562 0-4.283 2.009-4.283 4.331" transform="translate(30.7347 4.331)"/><path d="m0 0v-6.666h1.973c2.13 0 3.49 1.443 3.49 3.309v.025c0 1.864-1.36 3.332-3.49 3.332zm-.951.879h2.924c2.648 0 4.476-1.816 4.476-4.188v-.023c0-2.371-1.828-4.213-4.476-4.213h-2.924z" transform="translate(37.3407 7.6884)"/><path d="m0 0h6.09v-.865h-5.139v-2.877h4.597v-.866h-4.597v-2.949h5.198v-.867h-6.149z" transform="translate(48.4564 8.5674)"/><path d="m0 0 .589.697c.88-.794 1.722-1.191 2.889-1.191 1.131 0 1.877.601 1.877 1.432v.024c0 .782-.42 1.226-2.191 1.601-1.937.421-2.827 1.046-2.827 2.431v.024c0 1.324 1.167 2.298 2.767 2.298 1.229 0 2.106-.349 2.962-1.035l-.554-.734c-.782.638-1.564.915-2.431.915-1.096 0-1.793-.602-1.793-1.36v-.025c0-.794.433-1.238 2.287-1.636 1.876-.41 2.743-1.095 2.743-2.382v-.026c0-1.442-1.203-2.382-2.876-2.382-1.336 0-2.432.446-3.442 1.349" transform="translate(58.621 1.372)"/><path d="m0 0 .589.697c.88-.794 1.722-1.191 2.889-1.191 1.131 0 1.877.601 1.877 1.432v.024c0 .782-.42 1.226-2.191 1.601-1.937.421-2.827 1.046-2.827 2.431v.024c0 1.324 1.168 2.298 2.767 2.298 1.229 0 2.106-.349 2.962-1.035l-.553-.734c-.783.638-1.565.915-2.432.915-1.096 0-1.792-.602-1.792-1.36v-.025c0-.794.432-1.238 2.286-1.636 1.876-.41 2.743-1.095 2.743-2.382v-.026c0-1.442-1.202-2.382-2.876-2.382-1.336 0-2.432.446-3.442 1.349" transform="translate(68.9779 1.372)"/><path d="m0 0-1.914 4.297-1.925-4.297zm-2.346 5.403h.889l3.839-8.484h-1.022l-.987 2.227h-4.585l-.998-2.227h-.976z" transform="translate(85.3514 3.2246)"/><path d="m0 0c1.265 0 2.168.65 2.168 1.733v.024c0 1.035-.796 1.66-2.156 1.66h-2.598v-3.417zm-3.537 4.296h3.622c1.035 0 1.864-.313 2.394-.842.409-.409.651-1 .651-1.661v-.024c0-1.396-.962-2.214-2.286-2.455l2.586-3.442h-1.167l-2.444 3.274h-2.405v-3.274h-.951z" transform="translate(101.8509 4.2715)"/><path d="m0 0h6.091v-.865h-5.14v-2.877h4.598v-.866h-4.598v-2.949h5.199v-.867h-6.15z" transform="translate(109.6688 8.5674)"/><path d="m0 0 .589.697c.88-.794 1.722-1.191 2.889-1.191 1.131 0 1.877.601 1.877 1.432v.024c0 .782-.42 1.226-2.191 1.601-1.937.421-2.827 1.046-2.827 2.431v.024c0 1.324 1.168 2.298 2.767 2.298 1.229 0 2.106-.349 2.962-1.035l-.553-.734c-.783.638-1.565.915-2.433.915-1.096 0-1.792-.602-1.792-1.36v-.025c0-.794.433-1.238 2.287-1.636 1.875-.41 2.743-1.095 2.743-2.382v-.026c0-1.442-1.203-2.382-2.877-2.382-1.336 0-2.431.446-3.441 1.349" transform="translate(119.8338 1.372)"/><path d="m130.828 8.567h.95v-8.424h-.95z"/><path d="m0 0v-6.666h1.976c2.129 0 3.489 1.443 3.489 3.309v.025c0 1.864-1.36 3.332-3.489 3.332zm-.951.879h2.927c2.645 0 4.475-1.816 4.475-4.188v-.023c0-2.371-1.83-4.213-4.475-4.213h-2.927z" transform="translate(137.8475 7.6884)"/><path d="m0 0h6.091v-.865h-5.14v-2.877h4.598v-.866h-4.598v-2.949h5.199v-.867h-6.15z" transform="translate(148.9647 8.5674)"/><path d="m0 0h.892l5.305-6.751v6.751h.927v-8.424h-.758l-5.439 6.908v-6.908h-.927z" transform="translate(159.6834 8.5674)"/><path d="m0 0v.025c0 2.383 1.783 4.356 4.262 4.356 1.529 0 2.441-.542 3.285-1.336l-.651-.697c-.709.673-1.504 1.155-2.646 1.155-1.866 0-3.261-1.517-3.261-3.454v-.024c0-1.951 1.407-3.478 3.261-3.478 1.155 0 1.911.445 2.72 1.215l.625-.614c-.879-.889-1.842-1.479-3.37-1.479-2.43 0-4.225 1.912-4.225 4.331" transform="translate(171.4715 4.331)"/><path d="m0 0h6.091v-.865h-5.14v-2.877h4.598v-.866h-4.598v-2.949h5.198v-.867h-6.149z" transform="translate(183.4305 8.5674)"/></g></g></svg>

<svg
  class="active"
   xmlns:dc="http://purl.org/dc/elements/1.1/"
   xmlns:cc="http://creativecommons.org/ns#"
   xmlns:rdf="http://www.w3.org/1999/02/22-rdf-syntax-ns#"
   xmlns:svg="http://www.w3.org/2000/svg"
   xmlns="http://www.w3.org/2000/svg"
   xmlns:sodipodi="http://sodipodi.sourceforge.net/DTD/sodipodi-0.dtd"
   xmlns:inkscape="http://www.inkscape.org/namespaces/inkscape"
   version="1.1"
   id="svg3774"
   xml:space="preserve"
   width="100%"
   viewBox="0 0 287.02933 89.574135"
   sodipodi:docname="kandinsky_logo.svg"
   inkscape:version="0.92.1 r15371"><metadata
     id="metadata3780"><rdf:RDF><cc:Work
         rdf:about=""><dc:format>image/svg+xml</dc:format><dc:type
           rdf:resource="http://purl.org/dc/dcmitype/StillImage" /><dc:title></dc:title></cc:Work></rdf:RDF></metadata><defs
     id="defs3778"><clipPath
       clipPathUnits="userSpaceOnUse"
       id="clipPath3790"><path
         d="M 0,67.181 H 215.272 V 0 H 0 Z"
         id="path3788"
         inkscape:connector-curvature="0" /></clipPath></defs><sodipodi:namedview
     pagecolor="#ffffff"
     bordercolor="#666666"
     borderopacity="1"
     objecttolerance="10"
     gridtolerance="10"
     guidetolerance="10"
     inkscape:pageopacity="0"
     inkscape:pageshadow="2"
     inkscape:window-width="920"
     inkscape:window-height="691"
     id="namedview3776"
     showgrid="false"
     inkscape:zoom="1.3239065"
     inkscape:cx="143.51466"
     inkscape:cy="44.787067"
     inkscape:window-x="557"
     inkscape:window-y="167"
     inkscape:window-maximized="0"
     inkscape:current-layer="g3782" /><g
     id="g3782"
     inkscape:groupmode="layer"
     inkscape:label="Kandinsky_logo"
     transform="matrix(1.3333333,0,0,-1.3333333,0,89.574133)"><g
       id="g3784"><g
         id="g3786"
         clip-path="url(#clipPath3790)"><g
           id="g3792"
           transform="translate(126.1698,15.4472)"><path
             d="m 0,0 -1.379,0.911 c 7.906,11.975 6.269,28.043 -3.893,38.205 -11.849,11.846 -31.125,11.846 -42.974,0 l -1.167,1.167 c 12.491,12.494 32.817,12.491 45.308,0 C 6.61,29.569 8.338,12.628 0,0"
             style="fill:#af7d58;fill-opacity:1;fill-rule:nonzero;stroke:none"
             id="path3794"
             inkscape:connector-curvature="0" /></g><g
           id="g3796"
           transform="translate(23.9613,50.9448)"><path
             d="M 0,0 -1.167,1.167 6.568,8.905 7.736,7.738 Z"
             style="fill:#af7d58;fill-opacity:1;fill-rule:nonzero;stroke:none"
             id="path3798"
             inkscape:connector-curvature="0" /></g><g
           id="g3800"
           transform="translate(31.7001,50.9448)"><path
             d="M 0,0 -1.169,1.167 6.565,8.905 7.735,7.738 Z"
             style="fill:#af7d58;fill-opacity:1;fill-rule:nonzero;stroke:none"
             id="path3802"
             inkscape:connector-curvature="0" /></g><g
           id="g3804"
           transform="translate(39.4339,50.9448)"><path
             d="M 0,0 -1.167,1.167 6.57,8.905 7.737,7.738 Z"
             style="fill:#af7d58;fill-opacity:1;fill-rule:nonzero;stroke:none"
             id="path3806"
             inkscape:connector-curvature="0" /></g><g
           id="g3808"
           transform="translate(114.3631,49.1108)"><path
             d="M 0,0 -1.151,1.187 16.27,18.07 17.422,16.884 Z"
             style="fill:#af7d58;fill-opacity:1;fill-rule:nonzero;stroke:none"
             id="path3810"
             inkscape:connector-curvature="0" /></g><g
           id="g3812"
           transform="translate(16.6141,18.8242)"><path
             d="m 0,0 -8.189,11.262 -3.38,-3.504 V 0 h -5.045 v 25.337 h 5.045 V 13.46 L -0.544,25.337 H 5.445 L -4.799,14.672 6.052,0 Z"
             style="fill:#244c5a;fill-opacity:1;fill-rule:nonzero;stroke:none"
             id="path3814"
             inkscape:connector-curvature="0" /></g><g
           id="g3816"
           transform="translate(71.3363,18.8242)"><path
             d="M 0,0 -13.1,17.199 V 0 h -4.973 v 25.337 h 4.788 L -0.606,8.672 V 25.337 H 4.367 V 0 Z"
             style="fill:#244c5a;fill-opacity:1;fill-rule:nonzero;stroke:none"
             id="path3818"
             inkscape:connector-curvature="0" /></g><path
           d="m 107.298,18.825 h 5.045 v 25.336 h -5.045 z"
           style="fill:#244c5a;fill-opacity:1;fill-rule:nonzero;stroke:none"
           id="path3820"
           inkscape:connector-curvature="0" /><g
           id="g3822"
           transform="translate(136.1073,18.8242)"><path
             d="M 0,0 -13.101,17.199 V 0 h -4.971 v 25.337 h 4.777 L -0.606,8.672 V 25.337 H 4.377 L 4.377,0 Z"
             style="fill:#244c5a;fill-opacity:1;fill-rule:nonzero;stroke:none"
             id="path3824"
             inkscape:connector-curvature="0" /></g><g
           id="g3826"
           transform="translate(154.9598,18.4541)"><path
             d="m 0,0 c -3.914,0 -7.654,1.366 -10.571,3.863 l 2.968,3.555 c 2.57,-2.075 5.036,-3.03 7.706,-3.03 2.528,0 4.1,1.068 4.1,2.774 v 0.071 c 0,1.747 -1.182,2.538 -5.487,3.637 -5.681,1.46 -8.373,2.97 -8.373,7.634 v 0.073 c 0,2.198 0.843,4.069 2.446,5.435 1.562,1.336 3.81,2.087 6.307,2.087 3.494,0 6.606,-1.029 9.226,-3.063 L 5.702,19.255 C 3.277,20.899 1.089,21.7 -0.976,21.7 c -2.702,0 -3.668,-1.397 -3.668,-2.589 v -0.082 c 0,-2.055 1.614,-2.662 5.867,-3.75 4.931,-1.285 8.004,-2.98 8.004,-7.47 V 7.728 C 9.227,2.959 5.672,0 0,0"
             style="fill:#244c5a;fill-opacity:1;fill-rule:nonzero;stroke:none"
             id="path3828"
             inkscape:connector-curvature="0" /></g><g
           id="g3830"
           transform="translate(184.6024,18.8242)"><path
             d="M 0,0 -8.188,11.262 -11.58,7.758 V 0 h -5.055 v 25.337 h 5.055 V 13.46 l 11.036,11.877 h 5.99 L -4.799,14.672 6.052,0 Z"
             style="fill:#244c5a;fill-opacity:1;fill-rule:nonzero;stroke:none"
             id="path3832"
             inkscape:connector-curvature="0" /></g><g
           id="g3834"
           transform="translate(200.4872,18.8242)"><path
             d="m 0,0 v 10.028 l -9.721,15.309 h 5.899 L 2.559,14.59 9.083,25.337 h 5.701 L 5.044,10.131 V 0 Z"
             style="fill:#244c5a;fill-opacity:1;fill-rule:nonzero;stroke:none"
             id="path3836"
             inkscape:connector-curvature="0" /></g><g
           id="g3838"
           transform="translate(45.3519,18.8242)"><path
             d="M 0,0 -2.363,5.836 H -13.809 L -16.193,0 h -5.096 l 4.326,10.183 H -4.15 v 0.04 h 0.02 l -3.956,9.649 -0.031,-0.032 -2.322,5.682 v 0.01 h 4.85 L 5.271,0 Z"
             style="fill:#244c5a;fill-opacity:1;fill-rule:nonzero;stroke:none"
             id="path3840"
             inkscape:connector-curvature="0" /></g><g
           id="g3842"
           transform="translate(85.9164,18.8242)"><path
             d="m 0,0 v 4.5 h 3.596 c 2.384,0 4.428,0.782 5.908,2.24 1.489,1.48 2.26,3.493 2.26,5.857 v 0.082 c 0,4.798 -3.349,8.158 -8.168,8.158 H 0 -0.329 -6.216 v 4.5 h 9.812 c 7.809,0 13.48,-5.291 13.48,-12.585 V 12.679 C 17.076,9.186 15.761,5.98 13.347,3.658 10.88,1.295 7.418,0 3.596,0 Z"
             style="fill:#244c5a;fill-opacity:1;fill-rule:nonzero;stroke:none"
             id="path3844"
             inkscape:connector-curvature="0" /></g><g
           id="g3846"
           transform="translate(30.7347,4.331)"><path
             d="m 0,0 v 0.025 c 0,1.913 -1.395,3.478 -3.321,3.478 -1.925,0 -3.297,-1.541 -3.297,-3.454 V 0.025 c 0,-1.914 1.396,-3.478 3.321,-3.478 C -1.372,-3.453 0,-1.912 0,0 m -7.604,0 v 0.025 c 0,2.323 1.745,4.356 4.307,4.356 2.565,0 4.286,-2.01 4.286,-4.332 V 0.025 c 0,-2.323 -1.745,-4.356 -4.31,-4.356 -2.562,0 -4.283,2.009 -4.283,4.331"
             style="fill:#244c5a;fill-opacity:1;fill-rule:nonzero;stroke:none"
             id="path3848"
             inkscape:connector-curvature="0" /></g><g
           id="g3850"
           transform="translate(37.3407,7.6884)"><path
             d="m 0,0 v -6.666 h 1.973 c 2.13,0 3.49,1.443 3.49,3.309 v 0.025 C 5.463,-1.468 4.103,0 1.973,0 Z m -0.951,0.879 h 2.924 c 2.648,0 4.476,-1.816 4.476,-4.188 v -0.023 c 0,-2.371 -1.828,-4.213 -4.476,-4.213 h -2.924 z"
             style="fill:#244c5a;fill-opacity:1;fill-rule:nonzero;stroke:none"
             id="path3852"
             inkscape:connector-curvature="0" /></g><g
           id="g3854"
           transform="translate(48.4564,8.5674)"><path
             d="M 0,0 H 6.09 V -0.865 H 0.951 V -3.742 H 5.548 V -4.608 H 0.951 V -7.557 H 6.149 V -8.424 H 0 Z"
             style="fill:#244c5a;fill-opacity:1;fill-rule:nonzero;stroke:none"
             id="path3856"
             inkscape:connector-curvature="0" /></g><g
           id="g3858"
           transform="translate(58.621,1.372)"><path
             d="m 0,0 0.589,0.697 c 0.88,-0.794 1.722,-1.191 2.889,-1.191 1.131,0 1.877,0.601 1.877,1.432 v 0.024 c 0,0.782 -0.42,1.226 -2.191,1.601 C 1.227,2.984 0.337,3.609 0.337,4.994 v 0.024 c 0,1.324 1.167,2.298 2.767,2.298 1.229,0 2.106,-0.349 2.962,-1.035 L 5.512,5.547 C 4.73,6.185 3.948,6.462 3.081,6.462 1.985,6.462 1.288,5.86 1.288,5.102 V 5.077 C 1.288,4.283 1.721,3.839 3.575,3.441 5.451,3.031 6.318,2.346 6.318,1.059 V 1.033 C 6.318,-0.409 5.115,-1.349 3.442,-1.349 2.106,-1.349 1.01,-0.903 0,0"
             style="fill:#244c5a;fill-opacity:1;fill-rule:nonzero;stroke:none"
             id="path3860"
             inkscape:connector-curvature="0" /></g><g
           id="g3862"
           transform="translate(68.9779,1.372)"><path
             d="m 0,0 0.589,0.697 c 0.88,-0.794 1.722,-1.191 2.889,-1.191 1.131,0 1.877,0.601 1.877,1.432 v 0.024 c 0,0.782 -0.42,1.226 -2.191,1.601 C 1.227,2.984 0.337,3.609 0.337,4.994 v 0.024 c 0,1.324 1.168,2.298 2.767,2.298 1.229,0 2.106,-0.349 2.962,-1.035 L 5.513,5.547 C 4.73,6.185 3.948,6.462 3.081,6.462 1.985,6.462 1.289,5.86 1.289,5.102 V 5.077 C 1.289,4.283 1.721,3.839 3.575,3.441 5.451,3.031 6.318,2.346 6.318,1.059 V 1.033 C 6.318,-0.409 5.116,-1.349 3.442,-1.349 2.106,-1.349 1.01,-0.903 0,0"
             style="fill:#244c5a;fill-opacity:1;fill-rule:nonzero;stroke:none"
             id="path3864"
             inkscape:connector-curvature="0" /></g><g
           id="g3866"
           transform="translate(85.3514,3.2246)"><path
             d="M 0,0 -1.914,4.297 -3.839,0 Z m -2.346,5.403 h 0.889 L 2.382,-3.081 H 1.36 L 0.373,-0.854 H -4.212 L -5.21,-3.081 h -0.976 z"
             style="fill:#244c5a;fill-opacity:1;fill-rule:nonzero;stroke:none"
             id="path3868"
             inkscape:connector-curvature="0" /></g><g
           id="g3870"
           transform="translate(101.8509,4.2715)"><path
             d="m 0,0 c 1.265,0 2.168,0.65 2.168,1.733 v 0.024 c 0,1.035 -0.796,1.66 -2.156,1.66 H -2.586 V 0 Z M -3.537,4.296 H 0.085 C 1.12,4.296 1.949,3.983 2.479,3.454 2.888,3.045 3.13,2.454 3.13,1.793 V 1.769 C 3.13,0.373 2.168,-0.445 0.844,-0.686 L 3.43,-4.128 H 2.263 l -2.444,3.274 h -2.405 v -3.274 h -0.951 z"
             style="fill:#244c5a;fill-opacity:1;fill-rule:nonzero;stroke:none"
             id="path3872"
             inkscape:connector-curvature="0" /></g><g
           id="g3874"
           transform="translate(109.6688,8.5674)"><path
             d="M 0,0 H 6.091 V -0.865 H 0.951 V -3.742 H 5.549 V -4.608 H 0.951 V -7.557 H 6.15 V -8.424 H 0 Z"
             style="fill:#244c5a;fill-opacity:1;fill-rule:nonzero;stroke:none"
             id="path3876"
             inkscape:connector-curvature="0" /></g><g
           id="g3878"
           transform="translate(119.8338,1.372)"><path
             d="m 0,0 0.589,0.697 c 0.88,-0.794 1.722,-1.191 2.889,-1.191 1.131,0 1.877,0.601 1.877,1.432 v 0.024 c 0,0.782 -0.42,1.226 -2.191,1.601 C 1.227,2.984 0.337,3.609 0.337,4.994 v 0.024 c 0,1.324 1.168,2.298 2.767,2.298 1.229,0 2.106,-0.349 2.962,-1.035 L 5.513,5.547 C 4.73,6.185 3.948,6.462 3.08,6.462 1.984,6.462 1.288,5.86 1.288,5.102 V 5.077 C 1.288,4.283 1.721,3.839 3.575,3.441 5.45,3.031 6.318,2.346 6.318,1.059 V 1.033 C 6.318,-0.409 5.115,-1.349 3.441,-1.349 2.105,-1.349 1.01,-0.903 0,0"
             style="fill:#244c5a;fill-opacity:1;fill-rule:nonzero;stroke:none"
             id="path3880"
             inkscape:connector-curvature="0" /></g><path
           d="m 130.828,8.567 h 0.95 V 0.143 h -0.95 z"
           style="fill:#244c5a;fill-opacity:1;fill-rule:nonzero;stroke:none"
           id="path3882"
           inkscape:connector-curvature="0" /><g
           id="g3884"
           transform="translate(137.8475,7.6884)"><path
             d="m 0,0 v -6.666 h 1.976 c 2.129,0 3.489,1.443 3.489,3.309 v 0.025 C 5.465,-1.468 4.105,0 1.976,0 Z m -0.951,0.879 h 2.927 c 2.645,0 4.475,-1.816 4.475,-4.188 v -0.023 c 0,-2.371 -1.83,-4.213 -4.475,-4.213 h -2.927 z"
             style="fill:#244c5a;fill-opacity:1;fill-rule:nonzero;stroke:none"
             id="path3886"
             inkscape:connector-curvature="0" /></g><g
           id="g3888"
           transform="translate(148.9647,8.5674)"><path
             d="M 0,0 H 6.091 V -0.865 H 0.951 V -3.742 H 5.549 V -4.608 H 0.951 V -7.557 H 6.15 V -8.424 H 0 Z"
             style="fill:#244c5a;fill-opacity:1;fill-rule:nonzero;stroke:none"
             id="path3890"
             inkscape:connector-curvature="0" /></g><g
           id="g3892"
           transform="translate(159.6834,8.5674)"><path
             d="M 0,0 H 0.892 L 6.197,-6.751 V 0 H 7.124 V -8.424 H 6.366 L 0.927,-1.516 V -8.424 H 0 Z"
             style="fill:#244c5a;fill-opacity:1;fill-rule:nonzero;stroke:none"
             id="path3894"
             inkscape:connector-curvature="0" /></g><g
           id="g3896"
           transform="translate(171.4715,4.331)"><path
             d="m 0,0 v 0.025 c 0,2.383 1.783,4.356 4.262,4.356 1.529,0 2.441,-0.542 3.285,-1.336 L 6.896,2.348 C 6.187,3.021 5.392,3.503 4.25,3.503 2.384,3.503 0.989,1.986 0.989,0.049 V 0.025 c 0,-1.951 1.407,-3.478 3.261,-3.478 1.155,0 1.911,0.445 2.72,1.215 L 7.595,-2.852 C 6.716,-3.741 5.753,-4.331 4.225,-4.331 1.795,-4.331 0,-2.419 0,0"
             style="fill:#244c5a;fill-opacity:1;fill-rule:nonzero;stroke:none"
             id="path3898"
             inkscape:connector-curvature="0" /></g><g
           id="g3900"
           transform="translate(183.4305,8.5674)"><path
             d="M 0,0 H 6.091 V -0.865 H 0.951 V -3.742 H 5.549 V -4.608 H 0.951 V -7.557 H 6.149 V -8.424 H 0 Z"
             style="fill:#244c5a;fill-opacity:1;fill-rule:nonzero;stroke:none"
             id="path3902"
             inkscape:connector-curvature="0" /></g></g></g></g></svg>
